!!!OTL: Von den zehn Geboten
!!!ARE: Europa, Mitteleuropa, Deutschland
!!!SCT: A0621A
!!!YEM: Copyright 1995, estate of Helmut Schaffrath.
**kern
*ICvox
*Ivox
*M4/1
*k[]
*C:
=1
{1g
1g
1a
1g
=2
1e
1f
1g
2r
2c
=3
1d
1e
1f
1e
=4
0g
1d
1f
=5
1e
1d
1c
2r}
{2c
=6
1d
1d
1g
1f
=7
1e
1d
1c
1d
=8
2B
2G
1A
1G
2r}
{2c
=9
1d
1e
1c
1e
=10
1g
1f
1g
2r
2e
=11
1f
1d
1c
1B
=12
[0c
0c]}
==
!!!AGN: Romanze, Ballade, Lied, religioeses Lied
!! Muenchner Cod 14. Jh.
!!!ONB: ESAC (Essen Associative Code) Database: ALTDEU
!!!AMT: simple quadruple
!!!AIN: vox
!!!EED: Helmut Schaffrath
!!!EEV: 1.0
*-
